X:1
T:Title
%%score { ( 1 3 ) | ( 2 4 ) }
L:1/8
M:6/8
K:Bb
V:1 treble nm="Grand Piano"
V:3 treble 
V:2 bass 
V:4 bass 
V:1
 z3 z2[Q:1/4=100] [DF] | [DF]2 [Fd] [Fd]2 [FB] | [EG]2 [Gc] [Gc]2 [GB] | A2 A AGA | %4
 [DB]2 [Ec] [Fd]3 |[M:1/8] [DF] |[M:3/4] [DF]2 [Fd] [Fd]2 [FB] | [EG]2 [Gc] [Gc]2 [GB] | A2 AA GA | %9
 [DB]2 [Fd] [DB]3 |[M:1/8][Q:1/4=107] F |[M:3/4] z2 z d3- | d6 | z2 z F3- |[M:5/8] F-F- F3 | %15
[M:1/8] D |[M:3/4] z2 z A3- | A6 | z2 z B3- |[M:5/8] B-B- B3 |[M:1/8] D |[M:3/4] z2 z d3- | d6 | %23
 z2 z F3- |[M:5/8] F-F- F3 |[M:1/8] D |[M:3/4] z2 z c3- | c6 | z2 z B3- |[M:5/8] B-B- B3 |] %30
V:2
 z3 z2 [B,,B,] | [B,,B,]2 [B,,B,] [B,,B,]2 [D,B,] | [E,B,]2 [E,E] [E,E]2 [E,E] | %3
 [F,CF]2 [F,CF] [F,CE]2 [F,CE] | [B,,B,]2 [B,,B,] [B,,B,]3 |[M:1/8] [B,,B,] | %6
[M:3/4] [B,,B,]2 [B,,B,] [B,,B,]2 [D,B,] | [E,B,]2 [E,E] [E,E]2 [E,E] | %8
 [F,CF]2 [F,CF] [F,CE]2 [F,CE] | [B,,B,]2 [B,,B,] [B,,B,]3 |[M:1/8] z |[M:3/4] z2 z2 z [B,,B,] | %12
 [B,,B,]2 [B,,B,] .[B,,B,]3 | z2 z2 z [B,,B,] |[M:5/8] [B,,B,]2 [B,,B,] [B,,B,]2 |[M:1/8] z | %16
[M:3/4] z2 z2 z [F,C] | [F,C]2 [F,C] .[F,C]3 | z2 z2 z B,, |[M:5/8] B,,2 B,, B,,2 |[M:1/8] z | %21
[M:3/4] z2 z2 z [B,,B,] | [B,,B,]2 [B,,B,] .[B,,B,]3 | z2 z2 z [B,,B,] | %24
[M:5/8] [B,,B,]2 [B,,B,] [B,,B,]2 |[M:1/8] z |[M:3/4] z2 z2 z [F,A,] | %27
 [F,A,]2 [F,A,] [F,A,]2 [F,A,E] | [F,CE]2 .[F,A,E]2 z F, |[M:5/8] G,2 G, F,2 |] %30
V:3
 x6 | x6 | x6 | x6 | x6 |[M:1/8] x |[M:3/4] x6 | x6 | x6 | x6 |[M:1/8] x |[M:3/4] F2 .B2 z F | %12
 F2 F F2 c | B2 .D2 z D |[M:5/8] D2 D D2 |[M:1/8] x |[M:3/4] F2 .B2 z F | F2 F F2 F | %18
 A2 .c2 z [DF] |[M:5/8] [DF]2 [DF] [DF]2 |[M:1/8] x |[M:3/4] F2 .B2 z F | F2 F F2 c | B2 .D2 z D | %24
[M:5/8] D2 D D2 |[M:1/8] x |[M:3/4] F2 .B2 z E | E2 E E2 F | A2 F [B,D]2 D |[M:5/8] E2 E D2 |] %30
V:4
 x6 | x6 | x6 | x6 | x6 |[M:1/8] x |[M:3/4] x6 | x6 | x6 | x6 |[M:1/8] x |[M:3/4] x6 | x6 | x6 | %14
[M:5/8] x5 |[M:1/8] x |[M:3/4] x6 | x6 | x6 |[M:5/8] x5 |[M:1/8] x |[M:3/4] x6 | x6 | x6 | %24
[M:5/8] x5 |[M:1/8] x |[M:3/4] x6 | x6 | z2 z B,,3- |[M:5/8] B,,-B,,- B,,3 |] %30

